docs/img/VK_24.svg

<svg width="24" height="24" viewBox="0 0 24 24" fill="none" xmlns="http://www.w3.org/2000/svg">
<path fill-rule="evenodd" clip-rule="evenodd" d="M22.4823 6.83274C22.6454 6.36299 22.4823 6.02135 21.76 6.02135H19.3601C18.7544 6.02135 18.4748 6.32028 18.3117 6.64057C18.3117 6.64057 17.0768 9.37366 15.3526 11.1459C14.7934 11.6584 14.5371 11.8292 14.2342 11.8292C14.0711 11.8292 13.8614 11.6584 13.8614 11.1886V6.81139C13.8614 6.25623 13.675 6 13.1624 6H9.38788C9.01509 6 8.78209 6.25623 8.78209 6.51245C8.78209 7.04626 9.64418 7.17438 9.73738 8.66904V11.9146C9.73738 12.6192 9.59758 12.7473 9.29468 12.7473C8.4792 12.7473 6.49872 9.99288 5.31044 6.85409C5.07744 6.23488 4.84445 6 4.23865 6H1.81549C1.1165 6 1 6.29893 1 6.61922C1 7.19573 1.81549 10.0996 4.79785 13.9431C6.77832 16.5694 9.59758 17.9786 12.1372 17.9786C13.675 17.9786 13.8614 17.6584 13.8614 17.1246V15.1388C13.8614 14.4982 14.0012 14.3915 14.4905 14.3915C14.84 14.3915 15.4691 14.5623 16.8904 15.8221C18.5214 17.3167 18.8009 18 19.7096 18H22.1095C22.8085 18 23.1347 17.6797 22.9483 17.0605C22.7386 16.4413 21.9464 15.5445 20.9212 14.4769C20.362 13.879 19.5232 13.2171 19.2669 12.8968C18.9174 12.4698 19.0106 12.2989 19.2669 11.9146C19.2436 11.9146 22.1794 8.11388 22.4823 6.83274Z" fill="#FF0033"/>
</svg>

<svg xmlns="http://www.w3.org/2000/svg" width="24" height="24" fill="none"><path fill="#F03" fill-rule="evenodd" d="M22.482 6.833c.163-.47 0-.812-.722-.812h-2.4c-.606 0-.885.3-1.048.62 0 0-1.235 2.733-2.96 4.505-.559.512-.815.683-1.118.683-.163 0-.373-.17-.373-.64V6.81c0-.555-.186-.811-.699-.811H9.388c-.373 0-.606.256-.606.512 0 .534.862.662.955 2.157v3.246c0 .704-.14.832-.442.832-.816 0-2.796-2.754-3.985-5.893C5.077 6.234 4.844 6 4.24 6H1.815C1.117 6 1 6.299 1 6.62c0 .576.815 3.48 3.798 7.323 1.98 2.626 4.8 4.036 7.34 4.036 1.537 0 1.723-.32 1.723-.854v-1.986c0-.64.14-.747.63-.747.349 0 .978.17 2.4 1.43C18.52 17.317 18.8 18 19.71 18h2.4c.698 0 1.025-.32.838-.94-.21-.619-1.002-1.515-2.027-2.583-.559-.598-1.398-1.26-1.654-1.58-.35-.427-.256-.598 0-.982-.023 0 2.912-3.801 3.215-5.082" clip-rule="evenodd"/></svg>
